src/assets/Imgs/profile/wechat.svg

<svg fill="none" height="32" viewBox="0 0 32 32" width="32" xmlns="http://www.w3.org/2000/svg"><rect fill="#1ddd5a" height="32" rx="8" width="32"/><g fill="#fff"><path d="m15.9661 14.5883c-1.5092 1.2075-2.0619 2.7735-1.6581 4.6981.0106.0481-.0078.0737-.0554.0767-.7201.0351-1.2917-.013-1.7149-.1444-.4557-.1414-.6857-.2332-1.1311.0331-.396.2377-.8017.4794-1.2171.7251-.0576.0339-.129.0302-.1831-.0095-.05404-.0397-.08087-.1082-.06876-.1756.06556-.3655.47896-1.4351.12956-1.7029-1.03555-.7983-1.70231-1.8102-2.00027-3.0358-.25136-1.6939.20527-3.1145 1.36992-4.2619.92495-.9106 1.99595-1.47022 3.21295-1.67882.9463-.16147 1.9129-.14894 2.9.03761 1.7518.33196 3.1076 1.33281 4.0675 3.00271.1776.3084.2489.7567.3785 1.1057.0078.0217.0046.046-.0086.0648-.0131.0187-.0345.0294-.0569.0285-1.4917-.0682-2.8131.344-3.9642 1.2366zm-3.1401-2.0821c0-.4619-.3624-.8364-.8095-.8364-.447 0-.8094.3745-.8094.8364 0 .462.3624.8364.8094.8364.4471 0 .8095-.3744.8095-.8364zm4.0355 0c0-.4636-.3637-.8394-.8124-.8394-.4486 0-.8123.3758-.8123.8394s.3637.8395.8123.8395c.4487 0 .8124-.3759.8124-.8395z"/><path d="m23.8093 15.4542c1.7975 1.7679 1.495 4.4456-.4704 5.9447-.3791.288-.0361 1.0472.0637 1.4282.0107.0406.0025.0838-.022.1175s-.0628.054-.1039.0554c-.0309.0009-.0748-.0158-.1317-.0503-.3936-.2393-.7969-.4682-1.2099-.6868-.0413-.0211-.0878-.0288-.1331-.0221-.2682.0443-.5345.0915-.7989.1418-1.0777.2018-2.125.1029-3.1419-.2969-3.0334-1.1934-3.9872-4.8296-1.2244-7.0036 2.2056-1.4962 5.1001-1.5036 7.1725.3721zm-4.8121 1.4297c0-.376-.2987-.6808-.6671-.6808-.3685 0-.6672.3048-.6672.6808 0 .3761.2987.6809.6672.6809.3684 0 .6671-.3048.6671-.6809zm3.3417 0c0-.376-.2987-.6808-.6672-.6808-.3684 0-.6671.3048-.6671.6808 0 .3761.2987.6809.6671.6809.3685 0 .6672-.3048.6672-.6809z"/></g></svg>

<svg width="32" height="32" viewBox="0 0 32 32" fill="none" xmlns="http://www.w3.org/2000/svg">
<g id="wech">
<rect id="Rectangle 2058" width="32" height="32" rx="8" fill="#1DDD5A"/>
<g id="Group 650">
<path id="&#229;&#189;&#162;&#231;&#138;&#182;" d="M15.9661 14.5883C14.4569 15.7958 13.9042 17.3618 14.308 19.2864C14.3186 19.3345 14.3002 19.3601 14.2526 19.3631C13.5325 19.3982 12.9609 19.3501 12.5377 19.2187C12.082 19.0773 11.852 18.9855 11.4066 19.2518C11.0106 19.4895 10.6049 19.7312 10.1895 19.9769C10.1319 20.0108 10.0605 20.0071 10.0064 19.9674C9.95236 19.9277 9.92553 19.8592 9.93764 19.7918C10.0032 19.4263 10.4166 18.3567 10.0672 18.0889C9.03165 17.2906 8.36489 16.2787 8.06693 15.0531C7.81557 13.3592 8.2722 11.9386 9.43685 10.7912C10.3618 9.8806 11.4328 9.32098 12.6498 9.11238C13.5961 8.95091 14.5627 8.96344 15.5498 9.14999C17.3016 9.48195 18.6574 10.4828 19.6173 12.1527C19.7949 12.4611 19.8662 12.9094 19.9958 13.2584C20.0036 13.2801 20.0004 13.3044 19.9872 13.3232C19.9741 13.3419 19.9527 13.3526 19.9303 13.3517C18.4386 13.2835 17.1172 13.6957 15.9661 14.5883ZM12.826 12.5062C12.826 12.0443 12.4636 11.6698 12.0165 11.6698C11.5695 11.6698 11.2071 12.0443 11.2071 12.5062C11.2071 12.9682 11.5695 13.3426 12.0165 13.3426C12.4636 13.3426 12.826 12.9682 12.826 12.5062ZM16.8615 12.5062C16.8615 12.0426 16.4978 11.6668 16.0491 11.6668C15.6005 11.6668 15.2368 12.0426 15.2368 12.5062C15.2368 12.9698 15.6005 13.3457 16.0491 13.3457C16.4978 13.3457 16.8615 12.9698 16.8615 12.5062Z" fill="white"/>
<path id="&#229;&#189;&#162;&#231;&#138;&#182;_2" d="M23.8093 15.4542C25.6068 17.2221 25.3043 19.8998 23.3389 21.3989C22.9598 21.6869 23.3028 22.4461 23.4026 22.8271C23.4133 22.8677 23.4051 22.9109 23.3806 22.9446C23.3561 22.9783 23.3178 22.9986 23.2767 23C23.2458 23.0009 23.2019 22.9842 23.145 22.9497C22.7514 22.7104 22.3481 22.4815 21.9351 22.2629C21.8938 22.2418 21.8473 22.2341 21.802 22.2408C21.5338 22.2851 21.2675 22.3323 21.0031 22.3826C19.9254 22.5844 18.8781 22.4855 17.8612 22.0857C14.8278 20.8923 13.874 17.2561 16.6368 15.0821C18.8424 13.5859 21.7369 13.5785 23.8093 15.4542ZM18.9972 16.8839C18.9972 16.5079 18.6985 16.2031 18.3301 16.2031C17.9616 16.2031 17.6629 16.5079 17.6629 16.8839C17.6629 17.26 17.9616 17.5648 18.3301 17.5648C18.6985 17.5648 18.9972 17.26 18.9972 16.8839ZM22.3389 16.8839C22.3389 16.5079 22.0402 16.2031 21.6717 16.2031C21.3033 16.2031 21.0046 16.5079 21.0046 16.8839C21.0046 17.26 21.3033 17.5648 21.6717 17.5648C22.0402 17.5648 22.3389 17.26 22.3389 16.8839Z" fill="white"/>
</g>
</g>
</svg>
